X:492
T:My Heart's In the Highlands
T:Cro Challin
B:Popular Songs and Melodies of Scotland (1893)
Z:Nigel Gatherer
M:3/4
L:1/8
K:G
G>A | B2 AB dB  | A2 G2 G>A | B2 d2 g>e | d4 
e>d | c2 B2 A>G | GB D2 d>c | B2 G2 A2  | G4      ||
G2  | A2 B2 g2  | G2 F2 G2  | A2 B2 g2  | d2 B2 G2 |
      A2 B2 d2  | G2 F2 e2  | d2 B2 A2  | G4      |]
